X: 3609
T: Bill Harte's
R: jig
M: 6/8
K: Dmixolydian
|:~D3 ~A3|BAG ABA|~D3 ~A3|BAG EGC|
~D3 ~A3|BAG ABc|d2 B cBA|1 BAG EGC:|2 BAG E2D||
|:d2B cBA|BAG ABc|d2B cBA|BAG EGC|
DdBc2A|BAG ABc|d2B cBA|BAG EGC:|

